X: 18
T: The Seven Step
R: barndance
M: 4/4
L: 1/8
K: Dmaj
(ABc | d2 d2 d2 d2 | cdec dcBA | f2 f2 f2 f2 | efge f2 d2 |fgaf e2 e2 | fgaf d2 d2 | efge c2 c2 | B2 A2 B2 A2 |fgaf e2 e2 | fgaf d2 d2 | B2 g2 e2 d2 | Bgec dcBA :|


Tune 1307	Setting 14626

